X:2
T:Dorset Four Hand Reel #2
R:reel
Z: Transcribed to abc by Mary Lou Knack
M:C|
K:A
E2| "A"A2ce aecA| "D"d2f2 d2f2| "A"A2ce aecA| "E7"B2e2 B2e2|
    "A"A2ce aecA| "D"d2f2 d2f2| "E7"e2gf edcB| "A"A2a2 a2 :|
|:\
cd| "A"e2c2 e2c2| "D"f2d2 f2d2| "A"e2c2 e2c2| "E7"B2e2 e3e |
    "A"e2c2 e2c2| "D"f2d2 f2d2| "E7"e2gf edcB| "A"A2a2 a2 :|
%%newpage
%%text 2
